; generated by PrusaSlicer 2.7.4 on 2024-04-29 at 18:15:52 UTC

; 

; external perimeters extrusion width = 0.45mm
; perimeters extrusion width = 0.45mm
; infill extrusion width = 0.45mm
; solid infill extrusion width = 0.45mm
; top infill extrusion width = 0.40mm
; support material extrusion width = 0.35mm
; first layer extrusion width = 0.42mm

M73 P0 R47
M73 Q0 S48

; printing object frog_Head.stl id:0 copy 0
; stop printing object frog_Head.stl id:0 copy 0

;TYPE:Custom
M862.3 P "MK3S" ; printer model check
M862.1 P0.4 ; nozzle diameter check
M115 U3.9.3 ; tell printer latest fw version
G90 ; use absolute coordinates
M83 ; extruder relative mode
M104 S215 ; set extruder temp
M140 S60 ; set bed temp
M190 S60 ; wait for bed temp
M109 S215 ; wait for extruder temp
G28 W ; home all without mesh bed level
G80 ; mesh bed leveling
G1 Y-3.0 F1000.0 ; go outside print area
G92 E0.0
G1 X60.0 E9.0 F1000.0 ; intro line
G1 X100.0 E12.5 F1000.0 ; intro line
G92 E0.0
M221 S95

; Don't change E values below. Excessive value can damage the printer.

G21 ; set units to millimeters
G90 ; use absolute coordinates
M83 ; use relative distances for extrusion
M900 K0.05 ; Filament gcode LA 1.5
M900 K30 ; Filament gcode LA 1.0
M107
;LAYER_CHANGE
;Z:0.2
;HEIGHT:0.2
G1 E-2 F2100
G1 Z.6 F10800
G1 X104.226 Y91.148
G1 Z.2
G1 E2 F2100
M204 S1000
;TYPE:Skirt/Brim
;WIDTH:0.42
G1 F1200
G1 X108.84 Y86.533 E.19848
G1 X109.458 Y86.088 E.02316
G1 X114.072 Y83.781 E.15689
G1 X115.135 Y83.53 E.03322
G1 X134.865 Y83.53 E.60006
G1 X135.928 Y83.781 E.03322
G1 X140.542 Y86.088 E.15689
G1 X141.16 Y86.533 E.02316
G1 X145.774 Y91.148 E.19848
G1 X146.47 Y92.828 E.05531
G1 X146.47 Y114.865 E.67023
G1 X146.348 Y115.617 E.02317
G1 X144.041 Y122.538 E.22188
G1 X143.256 Y123.654 E.0415
G1 X142.538 Y124.041 E.02481
G1 X135.616 Y126.348 E.22191
G1 X134.865 Y126.47 E.02314
G1 X115.135 Y126.47 E.60006
G1 X114.384 Y126.348 E.02314
G1 X107.462 Y124.041 E.22191
G1 X106.346 Y123.256 E.0415
G1 X105.959 Y122.538 E.02481
G1 X103.652 Y115.617 E.22188
G1 X103.53 Y114.865 E.02317
G1 X103.53 Y92.828 E.67023
G1 X104.203 Y91.203 E.05349
;WIPE_START
G1 F8640
G1 X104.226 Y91.148 E-.01377
G1 X108.84 Y86.533 E-1.50685
G1 X109.458 Y86.088 E-.17584
G1 X110.634 Y85.5 E-.30354
;WIPE_END
G1 Z.6 F10800
; printing object frog_Head.stl id:0 copy 0
G1 X111.048 Y99.095
G1 Z.2
G1 E2 F2100
;TYPE:Support material interface
;WIDTH:0.35
G1 F1200
G1 X111.309 Y98.477 E.01662
G1 X111.309 Y93.465 E.12414
G1 X111.816 Y93.465 E.01256
G1 X111.816 Y97.517 E.10036
G1 X112.323 Y96.696 E.0239
G1 X112.323 Y93.465 E.08002
G1 X112.83 Y93.465 E.01256
G1 X112.83 Y96.031 E.06355
G1 X113.337 Y95.529 E.01767
G1 X113.337 Y93.465 E.05112
G1 X113.844 Y93.465 E.01256
G1 X113.844 Y95.066 E.03965
G1 X114.351 Y94.61 E.01689
G1 X114.351 Y93.465 E.02836
G1 X114.858 Y93.465 E.01256
G1 X114.858 Y94.145 E.01684
G1 X115.366 Y93.698 E.01676
G1 X115.366 Y93.465 E.00577
G1 X115.651 Y93.465 E.00706
G1 X115.484 Y93.601 E.00533
;WIPE_START
G1 F8640
G1 X115.651 Y93.465 E-.04973
G1 X115.366 Y93.465 E-.06581
G1 X115.366 Y93.698 E-.0538
G1 X114.858 Y94.145 E-.15624
G1 X114.858 Y93.465 E-.15701
G1 X114.351 Y93.465 E-.11707
G1 X114.351 Y94.61 E-.26438
G1 X113.844 Y95.066 E-.15745
G1 X113.844 Y93.465 E-.36968
G1 X113.337 Y93.465 E-.11707
G1 X113.337 Y95.529 E-.47658
G1 X113.29 Y95.575 E-.01518
;WIPE_END
G1 Z.6 F10800
G1 X109.127 Y98.079
G1 Z.2
G1 E2 F2100
G1 F1200
G1 X108.851 Y98.079 E.00684
G1 X108.851 Y102.693 E.11428
G1 X109.281 Y102.693 E.01065
G1 X109.281 Y98.079 E.11428
G1 X109.788 Y98.079 E.01256
G1 X109.788 Y102.693 E.11428
G1 X110.032 Y102.693 E.00604
G1 X110.295 Y101.02 E.04195
G1 X110.295 Y98.079 E.07284
G1 X110.802 Y98.079 E.01256
G1 X110.802 Y99.636 E.03856
G1 X110.54 Y100.243 E.01637
;WIPE_START
G1 F8640
G1 X110.802 Y99.636 E-.15266
G1 X110.802 Y98.079 E-.35952
G1 X110.295 Y98.079 E-.11707
G1 X110.295 Y101.02 E-.67909
G1 X110.032 Y102.693 E-.39104
G1 X109.788 Y102.693 E-.05634
G1 X109.788 Y101.635 E-.24428
;WIPE_END
G1 Z.6 F10800
G1 X125.094 Y92.589
G1 Z.2
G1 E2 F2100
;TYPE:Support material
;WIDTH:0.42
G1 F1200
G1 X126.489 Y92.677 E.04251
G1 X127.661 Y92.876 E.03615
G1 X128.911 Y93.22 E.03943
G1 X130.015 Y93.645 E.03598
G1 X131.247 Y94.272 E.04204
G1 X132.313 Y94.968 E.03872
G1 X133.285 Y95.753 E.038
G1 X134.187 Y96.647 E.03862
G1 X134.941 Y97.558 E.03597
G1 X135.618 Y98.558 E.03673
G1 X136.181 Y99.591 E.03578
G1 X136.744 Y100.952 E.04479
G1 X137.155 Y102.427 E.04657
G1 X137.387 Y104.012 E.04872
G1 X137.055 Y104.183 E.01136
G1 X136.803 Y104.459 E.01137
G1 X136.655 Y104.85 E.01272
G1 X136.647 Y105.129 E.00849
G1 X136.892 Y105.7 E.0189
G1 X137.386 Y106.024 E.01797
G1 X137.02 Y108.171 E.06624
G1 X136.642 Y109.363 E.03803
G1 X136.204 Y110.389 E.03393
G1 X135.62 Y111.467 E.03729
G1 X135.049 Y112.326 E.03137
G1 X134.323 Y113.232 E.03531
G1 X133.502 Y114.076 E.03581
G1 X132.647 Y114.807 E.03421
G1 X131.549 Y115.574 E.04073
G1 X130.553 Y116.131 E.03471
G1 X129.468 Y116.611 E.03608
G1 X128.336 Y116.986 E.03627
G1 X127.206 Y117.245 E.03526
G1 X124.997 Y117.442 E.06745
G1 X123.715 Y117.375 E.03904
G1 X122.339 Y117.154 E.04239
G1 X121.101 Y116.815 E.03904
G1 X119.985 Y116.386 E.03636
G1 X118.928 Y115.858 E.03593
G1 X117.854 Y115.181 E.03861
G1 X116.868 Y114.412 E.03803
G1 X115.876 Y113.452 E.04198
G1 X115.058 Y112.471 E.03885
G1 X114.382 Y111.473 E.03666
G1 X113.819 Y110.439 E.03581
G1 X113.256 Y109.078 E.04479
G1 X112.845 Y107.603 E.04657
G1 X112.613 Y106.019 E.04869
G1 X112.945 Y105.847 E.01137
G1 X113.197 Y105.571 E.01137
G1 X113.345 Y105.181 E.01269
G1 X113.353 Y104.902 E.00849
G1 X113.108 Y104.331 E.0189
G1 X112.614 Y104.007 E.01797
G1 X112.98 Y101.859 E.06627
G1 X113.358 Y100.667 E.03803
G1 X113.796 Y99.64 E.03396
G1 X114.381 Y98.562 E.0373
G1 X114.951 Y97.704 E.03133
G1 X115.677 Y96.799 E.03529
G1 X116.498 Y95.954 E.03583
G1 X117.323 Y95.246 E.03306
G1 X118.451 Y94.456 E.04188
G1 X119.448 Y93.899 E.03473
G1 X120.532 Y93.419 E.03606
G1 X121.665 Y93.044 E.0363
G1 X122.795 Y92.785 E.03526
G1 X123.997 Y92.629 E.03686
G1 X125.038 Y92.588 E.03169
G1 X125.038 Y92.588 F10800
G1 X136.731 Y108.565
G1 F1200
G1 X136.731 Y105.767 E.0851
G1 X136.731 Y105.767 F10800
G1 X136.731 Y104.269
G1 F1200
G1 X136.731 Y102.103 E.06588
G1 X136.312 Y100.757 E.04287
G1 X136.312 Y109.274 E.25903
G1 X135.893 Y110.252 E.03236
G1 X135.893 Y99.777 E.31858
G1 X135.475 Y98.983 E.02729
G1 X135.475 Y111.046 E.36688
G1 X135.056 Y111.721 E.02416
G1 X135.056 Y98.307 E.40797
G1 X134.637 Y97.718 E.02198
G1 X134.637 Y112.312 E.44386
G1 X134.218 Y112.834 E.02036
G1 X134.218 Y97.196 E.47561
G1 X133.799 Y96.727 E.01913
G1 X133.799 Y113.302 E.50411
G1 X133.38 Y113.725 E.01811
M73 P1 R47
M73 Q1 S48
G1 X133.38 Y96.304 E.52984
G1 X132.961 Y95.919 E.01731
G1 X132.961 Y114.108 E.55319
G1 X132.542 Y114.457 E.01658
G1 X132.542 Y95.569 E.57445
G1 X132.123 Y95.249 E.01603
G1 X132.123 Y114.778 E.59395
G1 X131.704 Y115.07 E.01553
G1 X131.704 Y94.957 E.61171
G1 X131.285 Y94.69 E.01511
G1 X131.285 Y115.337 E.62795
G1 X130.866 Y115.581 E.01475
M73 Q1 S47
G1 X130.866 Y94.446 E.64279
G1 X130.447 Y94.224 E.01442
G1 X130.447 Y115.804 E.65633
G1 X130.028 Y116.006 E.01415
G1 X130.028 Y94.023 E.66858
G1 X129.609 Y93.84 E.01391
G1 X129.609 Y116.19 E.67975
G1 X129.19 Y116.353 E.01367
G1 X129.19 Y93.677 E.68966
G1 X128.771 Y93.531 E.01349
G1 X128.771 Y116.5 E.69857
G1 X128.352 Y116.628 E.01332
G1 X128.352 Y93.402 E.70639
G1 X127.933 Y93.289 E.0132
G1 X127.933 Y116.741 E.71326
G1 X127.514 Y116.838 E.01308
G1 X127.514 Y93.192 E.71916
G1 X127.095 Y93.111 E.01298
G1 X127.095 Y116.92 E.72412
G1 X126.676 Y116.986 E.0129
G1 X126.676 Y93.045 E.72813
G1 X126.257 Y92.993 E.01284
G1 X126.257 Y117.038 E.7313
G1 X125.887 Y117.07 E.0113
G1 X125.838 Y92.957 E.73337
G1 X125.419 Y92.935 E.01276
M73 P1 R46
G1 X125.419 Y117.095 E.73479
G1 X125 Y117.103 E.01275
G1 X125 Y92.927 E.73528
G1 X124.581 Y92.935 E.01275
G1 X124.581 Y117.095 E.73479
G1 X124.162 Y117.074 E.01276
G1 X124.162 Y92.957 E.73349
G1 X123.743 Y92.993 E.01279
G1 X123.743 Y117.037 E.73127
G1 X123.324 Y116.986 E.01284
G1 X123.324 Y93.044 E.72816
G1 X122.905 Y93.111 E.01291
M73 P2 R46
M73 Q2 S47
G1 X122.905 Y116.92 E.72412
G1 X122.486 Y116.838 E.01299
G1 X122.486 Y93.192 E.71916
G1 X122.067 Y93.289 E.01308
G1 X122.067 Y116.742 E.71329
G1 X121.648 Y116.628 E.01321
G1 X121.648 Y93.402 E.70639
G1 X121.229 Y93.531 E.01333
G1 X121.229 Y116.5 E.69857
G1 X120.81 Y116.353 E.0135
G1 X120.81 Y93.677 E.68966
G1 X120.391 Y93.841 E.01368
G1 X120.391 Y116.19 E.67972
G1 X119.972 Y116.007 E.01391
G1 X119.972 Y94.024 E.66858
G1 X119.553 Y94.226 E.01415
G1 X119.553 Y115.806 E.65633
G1 X119.134 Y115.584 E.01442
G1 X119.134 Y94.449 E.64279
G1 X118.715 Y94.693 E.01475
G1 X118.715 Y115.34 E.62795
G1 X118.296 Y115.073 E.01511
G1 X118.296 Y94.96 E.61171
G1 X117.877 Y95.252 E.01553
G1 X117.877 Y114.781 E.59395
G1 X117.458 Y114.461 E.01603
G1 X117.458 Y95.573 E.57445
G1 X117.04 Y95.922 E.01656
G1 X117.04 Y114.111 E.55319
G1 X116.621 Y113.726 E.01731
G1 X116.621 Y96.306 E.52981
G1 X116.202 Y96.729 E.01811
G1 X116.202 Y113.303 E.50408
G1 X115.783 Y112.835 E.0191
G1 X115.783 Y97.196 E.47564
G1 X115.364 Y97.718 E.02036
G1 X115.364 Y112.313 E.44389
G1 X114.945 Y111.723 E.02201
G1 X114.945 Y98.309 E.40797
G1 X114.526 Y98.984 E.02416
G1 X114.526 Y111.048 E.36691
G1 X114.107 Y110.253 E.02733
G1 X114.107 Y99.778 E.31858
G1 X113.688 Y100.757 E.03239
G1 X113.688 Y109.273 E.259
G1 X113.269 Y107.927 E.04287
G1 X113.269 Y105.762 E.06585
G1 X113.269 Y105.762 F10800
G1 X113.269 Y104.263
G1 F1200
G1 X113.269 Y101.465 E.0851
;WIPE_START
G1 F8640
G1 X113.269 Y104.263 E-.64607
;WIPE_END
G1 E-1.35393 F2100
G1 Z.6 F10800
G1 X134.516 Y93.599
G1 Z.2
G1 E2 F2100
;TYPE:Support material interface
;WIDTH:0.35
G1 F1200
G1 X134.348 Y93.465 E.00532
G1 X134.635 Y93.465 E.00711
G1 X134.635 Y93.697 E.00575
G1 X135.142 Y94.144 E.01674
G1 X135.142 Y93.465 E.01682
G1 X135.649 Y93.465 E.01256
G1 X135.649 Y94.612 E.02841
G1 X136.156 Y95.065 E.01684
G1 X136.156 Y93.465 E.03963
G1 X136.663 Y93.465 E.01256
G1 X136.663 Y95.53 E.05115
G1 X137.17 Y96.033 E.01769
G1 X137.17 Y93.465 E.0636
G1 X137.677 Y93.465 E.01256
G1 X137.677 Y96.696 E.08002
G1 X138.184 Y97.519 E.02394
G1 X138.184 Y93.465 E.10041
G1 X138.691 Y93.465 E.01256
G1 X138.691 Y98.479 E.12419
G1 X138.953 Y99.094 E.01656
;WIPE_START
G1 F8640
G1 X138.691 Y98.479 E-.15435
G1 X138.691 Y93.465 E-1.15775
G1 X138.184 Y93.465 E-.11707
G1 X138.184 Y95.937 E-.57083
;WIPE_END
G1 Z.6 F10800
G1 X138.905 Y98.079
G1 Z.2
G1 E2 F2100
G1 F1200
G1 X139.198 Y98.079 E.00726
G1 X139.198 Y99.636 E.03856
G1 X139.46 Y100.236 E.01622
;WIPE_START
G1 F8640
G1 X139.198 Y99.636 E-.15117
G1 X139.198 Y98.079 E-.35952
G1 X138.905 Y98.079 E-.06765
;WIPE_END
G1 E-1.42166 F2100
G1 Z.6 F10800
G1 X139.835 Y101.695
G1 Z.2
G1 E2 F2100
G1 F1200
G1 X139.705 Y101.014 E.01717
G1 X139.705 Y98.079 E.07269
G1 X140.212 Y98.079 E.01256
G1 X140.212 Y102.693 E.11428
G1 X140.72 Y102.693 E.01258
G1 X140.72 Y98.079 E.11428
G1 X141.15 Y98.079 E.01065
G1 X141.15 Y102.693 E.11428
G1 X140.873 Y102.693 E.00686
;WIPE_START
G1 F8640
G1 X141.15 Y102.693 E-.06396
G1 X141.15 Y98.079 E-1.06539
G1 X140.72 Y98.079 E-.09929
G1 X140.72 Y101.42 E-.77136
;WIPE_END
G1 Z.6 F10800
G1 X134.865 Y88.214
G1 Z.2
G1 E2 F2100
;TYPE:Support material
;WIDTH:0.42
G1 F1200
G1 X139.479 Y88.214 E.14033
G1 X139.479 Y92.828 E.14033
M73 P3 R46
G1 X144.093 Y92.828 E.14033
G1 X144.093 Y114.865 E.67023
G1 X141.786 Y114.865 E.07016
M73 Q3 S47
G1 X141.786 Y121.786 E.21049
G1 X134.865 Y121.786 E.21049
G1 X134.865 Y124.093 E.07016
G1 X115.135 Y124.093 E.60006
G1 X115.135 Y121.786 E.07016
G1 X108.214 Y121.786 E.21049
G1 X108.214 Y114.865 E.21049
G1 X105.907 Y114.865 E.07016
G1 X105.907 Y92.828 E.67023
G1 X110.521 Y92.828 E.14033
G1 X110.521 Y88.214 E.14033
G1 X115.135 Y88.214 E.14033
G1 X115.135 Y85.907 E.07016
G1 X134.865 Y85.907 E.60006
G1 X134.865 Y88.158 E.06846
G1 X134.865 Y88.158 F10800
G1 X125.001 Y90.274
G1 F1200
G1 X126.197 Y90.324 E.03641
G1 X127.466 Y90.483 E.0389
G1 X129.704 Y91.045 E.07018
G1 X131.865 Y91.971 E.0715
M73 Q3 S46
G1 X133.865 Y93.239 E.07202
G1 X133.865 Y93.101 E.0042
G1 X139.206 Y93.101 E.16244
G1 X139.206 Y97.715 E.14033
G1 X141.513 Y97.715 E.07016
G1 X141.513 Y103.057 E.16247
G1 X139.645 Y103.057 E.05681
G1 X139.379 Y101.216 E.05657
G1 X139.012 Y100.106 E.03556
G1 X137.968 Y97.873 E.07497
G1 X137.194 Y96.633 E.04446
G1 X136.759 Y96.126 E.02032
G1 X137.771 Y97.656 E.05579
G1 X138.658 Y99.47 E.06141
G1 X139.288 Y101.388 E.0614
G1 X139.658 Y103.455 E.06386
G1 X139.733 Y105.498 E.06218
G1 X139.512 Y107.606 E.06446
G1 X138.98 Y109.688 E.06536
G1 X138.164 Y111.649 E.0646
G1 X137.079 Y113.464 E.06431
G1 X135.786 Y115.063 E.06254
G1 X134.271 Y116.475 E.06299
G1 X132.623 Y117.632 E.06124
G1 X131.273 Y118.354 E.04656
G1 X129.373 Y119.143 E.06257
G1 X127.192 Y119.592 E.06772
G1 X125 Y119.757 E.06686
G1 X122.876 Y119.603 E.06477
G1 X120.527 Y119.123 E.07292
G1 X118.503 Y118.246 E.06709
G1 X117.186 Y117.513 E.04584
G1 X115.725 Y116.472 E.05456
G1 X114.167 Y115.012 E.06494
G1 X112.868 Y113.388 E.06325
G1 X111.816 Y111.608 E.06288
G1 X111.009 Y109.655 E.06427
G1 X110.494 Y107.634 E.06343
G1 X110.268 Y105.538 E.06412
G1 X110.339 Y103.486 E.06245
G1 X110.725 Y101.336 E.06643
G1 X111.358 Y99.431 E.06105
G1 X112.119 Y97.849 E.05339
G1 X113.24 Y96.129 E.06244
G1 X112.763 Y96.695 E.02251
G1 X112.018 Y97.897 E.04301
G1 X110.939 Y100.225 E.07804
G1 X110.598 Y101.328 E.03511
G1 X110.36 Y103.057 E.05308
G1 X108.487 Y103.057 E.05696
G1 X108.487 Y97.715 E.16247
G1 X110.794 Y97.715 E.07016
G1 X110.794 Y93.101 E.14033
G1 X116.135 Y93.101 E.16244
G1 X116.135 Y93.238 E.00417
G1 X117.218 Y92.497 E.03991
G1 X118.296 Y91.887 E.03767
G1 X120.419 Y91.004 E.06993
G1 X121.543 Y90.687 E.03552
G1 X122.834 Y90.435 E.04001
G1 X124.944 Y90.275 E.06436
;WIPE_START
G1 F8640
G1 X122.834 Y90.435 E-.4886
G1 X121.543 Y90.687 E-.30372
G1 X120.419 Y91.004 E-.26966
G1 X118.296 Y91.887 E-.53092
G1 X117.218 Y92.497 E-.286
G1 X116.785 Y92.793 E-.1211
;WIPE_END
G1 Z.6 F10800
G1 X143.435 Y114.695
G1 Z.2
G1 E2 F2100
G1 F1200
G1 X143.435 Y93.168 E.65472
G1 X143.016 Y93.168 E.01274
G1 X143.016 Y114.525 E.64954
G1 X142.597 Y114.525 E.01274
G1 X142.597 Y93.168 E.64954
G1 X142.178 Y93.168 E.01274
G1 X142.178 Y114.525 E.64954
G1 X141.759 Y114.525 E.01274
G1 X141.759 Y93.168 E.64954
G1 X141.34 Y93.168 E.01274
G1 X141.34 Y97.376 E.12798
G1 X140.921 Y97.376 E.01274
G1 X140.921 Y93.168 E.12798
G1 X140.502 Y93.168 E.01274
G1 X140.502 Y97.376 E.12798
G1 X140.083 Y97.376 E.01274
G1 X140.083 Y93.168 E.12798
G1 X139.664 Y93.168 E.01274
G1 X139.664 Y97.546 E.13315
;WIPE_START
G1 F8640
G1 X139.664 Y93.168 E-1.01089
G1 X140.083 Y93.168 E-.09675
G1 X140.083 Y97.033 E-.89236
;WIPE_END
G1 Z.6 F10800
G1 X141.34 Y121.616
G1 Z.2
G1 E2 F2100
G1 F1200
G1 X141.34 Y103.396 E.55414
G1 X140.921 Y103.396 E.01274
M73 P3 R45
G1 X140.921 Y121.447 E.549
G1 X140.502 Y121.447 E.01274
G1 X140.502 Y103.396 E.549
G1 X140.083 Y103.396 E.01274
G1 X140.083 Y121.447 E.549
G1 X139.664 Y121.447 E.01274
G1 X139.664 Y108.527 E.39294
G1 X139.245 Y109.96 E.04541
G1 X139.245 Y121.447 E.34936
G1 X138.826 Y121.447 E.01274
G1 X138.826 Y111.032 E.31676
G1 X138.407 Y111.916 E.02975
M73 P4 R45
G1 X138.407 Y121.447 E.28987
G1 X137.988 Y121.447 E.01274
G1 X137.988 Y112.675 E.26679
G1 X137.569 Y113.344 E.02401
M73 Q4 S46
G1 X137.569 Y121.447 E.24644
G1 X137.15 Y121.447 E.01274
G1 X137.15 Y113.944 E.22819
G1 X136.731 Y114.491 E.02096
G1 X136.731 Y121.447 E.21156
G1 X136.312 Y121.447 E.01274
G1 X136.312 Y114.985 E.19653
G1 X135.893 Y115.44 E.01881
G1 X135.893 Y121.447 E.18269
G1 X135.475 Y121.447 E.01271
G1 X135.475 Y115.861 E.16989
G1 X135.056 Y116.251 E.01741
G1 X135.056 Y121.447 E.15803
G1 X134.637 Y121.447 E.01274
G1 X134.637 Y116.612 E.14705
G1 X134.218 Y116.948 E.01633
G1 X134.218 Y123.754 E.207
G1 X133.799 Y123.754 E.01274
G1 X133.799 Y117.261 E.19748
G1 X133.38 Y117.551 E.0155
G1 X133.38 Y123.754 E.18866
G1 X132.961 Y123.754 E.01274
G1 X132.961 Y117.822 E.18041
G1 X132.542 Y118.072 E.01484
G1 X132.542 Y123.754 E.17281
