; generated by PrusaSlicer 2.7.4 on 2024-04-30 at 13:50:56 UTC

; 

; external perimeters extrusion width = 0.45mm
; perimeters extrusion width = 0.45mm
; infill extrusion width = 0.45mm
; solid infill extrusion width = 0.45mm
; top infill extrusion width = 0.40mm
; support material extrusion width = 0.35mm
; first layer extrusion width = 0.42mm

M73 P0 R61
M73 Q0 S62

; printing object text.stl id:0 copy 0
; stop printing object text.stl id:0 copy 0

;TYPE:Custom
M862.3 P "MK3S" ; printer model check
M862.1 P0.4 ; nozzle diameter check
M115 U3.9.3 ; tell printer latest fw version
G90 ; use absolute coordinates
M83 ; extruder relative mode
M104 S215 ; set extruder temp
M140 S60 ; set bed temp
M190 S60 ; wait for bed temp
M109 S215 ; wait for extruder temp
G28 W ; home all without mesh bed level
G80 ; mesh bed leveling
G1 Y-3.0 F1000.0 ; go outside print area
G92 E0.0
G1 X60.0 E9.0 F1000.0 ; intro line
G1 X100.0 E12.5 F1000.0 ; intro line
G92 E0.0
M221 S95

; Don't change E values below. Excessive value can damage the printer.

G21 ; set units to millimeters
G90 ; use absolute coordinates
M83 ; use relative distances for extrusion
M900 K0.05 ; Filament gcode LA 1.5
M900 K30 ; Filament gcode LA 1.0
M107
;LAYER_CHANGE
;Z:0.2
;HEIGHT:0.2
G1 E-2 F2100
G1 Z.6 F10800
G1 X104.146 Y91.099
G1 Z.2
G1 E2 F2100
M204 S1000
;TYPE:Skirt/Brim
;WIDTH:0.42
G1 F1200
G1 X106.464 Y88.781 E.0997
G1 X107.081 Y88.336 E.02314
G1 X116.353 Y83.701 E.31527
G1 X117.416 Y83.45 E.03322
G1 X132.585 Y83.45 E.46134
G1 X133.648 Y83.701 E.03322
G1 X142.919 Y88.336 E.31524
G1 X143.537 Y88.781 E.02316
G1 X145.854 Y91.099 E.09968
G1 X146.551 Y92.78 E.05535
G1 X146.551 Y112.585 E.60234
G1 X146.429 Y113.336 E.02314
G1 X144.111 Y120.29 E.22294
G1 X143.537 Y121.219 E.03321
M73 P0 R60
G1 X141.219 Y123.537 E.0997
G1 X140.601 Y123.982 E.02316
G1 X135.965 Y126.3 E.15764
G1 X134.902 Y126.551 E.03322
G1 X115.098 Y126.551 E.60231
G1 X114.035 Y126.3 E.03322
M73 Q0 S61
G1 X109.399 Y123.982 E.15764
G1 X108.781 Y123.537 E.02316
G1 X106.464 Y121.219 E.09968
G1 X105.889 Y120.29 E.03323
G1 X103.572 Y113.336 E.22293
G1 X103.45 Y112.585 E.02314
G1 X103.45 Y92.78 E.60234
G1 X104.123 Y91.155 E.05349
;WIPE_START
G1 F8640
G1 X104.146 Y91.099 E-.01398
G1 X106.464 Y88.781 E-.75693
G1 X107.081 Y88.336 E-.17566
G1 X111.162 Y86.296 E-1.05343
;WIPE_END
G1 Z.6 F10800
; printing object text.stl id:0 copy 0
G1 X132.585 Y88.144
G1 Z.2
G1 E2 F2100
;TYPE:Support material
G1 F1200
G1 X137.22 Y88.144 E.14097
G1 X137.22 Y90.462 E.0705
G1 X141.856 Y90.462 E.141
G1 X141.856 Y92.78 E.0705
G1 X144.174 Y92.78 E.0705
G1 X144.174 Y112.585 E.60234
G1 X141.856 Y112.585 E.0705
G1 X141.856 Y119.538 E.21147
G1 X139.538 Y119.538 E.0705
G1 X139.538 Y121.856 E.0705
G1 X134.902 Y121.856 E.141
G1 X134.902 Y124.174 E.0705
G1 X115.098 Y124.174 E.60231
G1 X115.098 Y121.856 E.0705
G1 X110.462 Y121.856 E.141
G1 X110.462 Y119.538 E.0705
G1 X108.144 Y119.538 E.0705
G1 X108.144 Y112.585 E.21147
G1 X105.827 Y112.585 E.07047
G1 X105.827 Y92.78 E.60234
G1 X108.144 Y92.78 E.07047
G1 X108.144 Y90.462 E.0705
G1 X112.78 Y90.462 E.141
G1 X112.78 Y88.144 E.0705
G1 X117.416 Y88.144 E.141
G1 X117.416 Y85.827 E.07047
G1 X132.585 Y85.827 E.46134
G1 X132.585 Y88.088 E.06877
G1 X132.585 Y88.088 F10800
G1 X125.001 Y90.274
G1 F1200
G1 X126.623 Y90.364 E.04941
G1 X128.076 Y90.599 E.04477
G1 X129.49 Y90.976 E.04451
G1 X130.704 Y91.423 E.03935
G1 X132.082 Y92.087 E.04652
G1 X133.369 Y92.88 E.04598
G1 X134.406 Y93.668 E.03961
G1 X135.43 Y94.599 E.04209
G1 X136.396 Y95.667 E.0438
G1 X137.186 Y96.722 E.04009
G1 X137.957 Y97.984 E.04498
G1 X138.598 Y99.325 E.0452
G1 X139.1 Y100.717 E.045
G1 X139.437 Y102.04 E.04152
G1 X139.658 Y103.455 E.04356
G1 X139.741 Y105.029 E.04794
G1 X139.665 Y106.508 E.04504
G1 X139.428 Y108.032 E.04691
G1 X139.128 Y109.222 E.03732
G1 X138.605 Y110.69 E.0474
G1 X137.975 Y112.01 E.04448
G1 X137.201 Y113.284 E.04534
G1 X136.461 Y114.286 E.03788
G1 X135.42 Y115.442 E.04731
G1 X134.271 Y116.475 E.04699
G1 X133.028 Y117.378 E.04673
G1 X131.714 Y118.138 E.04617
G1 X129.748 Y119.036 E.06574
G1 X127.197 Y119.591 E.0794
G1 X125 Y119.757 E.06701
G1 X122.868 Y119.602 E.06501
G1 X120.221 Y119.017 E.08245
G1 X118.499 Y118.245 E.05739
G1 X117.183 Y117.512 E.04581
G1 X115.729 Y116.475 E.05432
G1 X114.572 Y115.434 E.04734
G1 X113.633 Y114.398 E.04252
G1 X112.865 Y113.383 E.03871
G1 X112.084 Y112.118 E.04522
G1 X111.408 Y110.719 E.04726
G1 X110.862 Y109.191 E.04935
G1 X110.566 Y108.004 E.03721
G1 X110.346 Y106.613 E.04283
G1 X110.259 Y104.999 E.04916
G1 X110.339 Y103.486 E.04608
G1 X110.501 Y102.355 E.03475
G1 X110.855 Y100.866 E.04655
G1 X111.36 Y99.425 E.04644
G1 X112.023 Y98.023 E.04717
G1 X112.638 Y96.985 E.03669
G1 X113.536 Y95.749 E.04647
G1 X114.574 Y94.595 E.04721
G1 X115.726 Y93.557 E.04716
G1 X116.757 Y92.796 E.03897
G1 X117.841 Y92.13 E.03869
G1 X119.215 Y91.458 E.04652
G1 X120.424 Y91.003 E.03929
G1 X121.866 Y90.612 E.04544
G1 X123.328 Y90.37 E.04507
G1 X124.944 Y90.275 E.04923
;WIPE_START
G1 F8640
G1 X123.328 Y90.37 E-.37378
G1 X121.866 Y90.612 E-.34217
G1 X120.424 Y91.003 E-.34498
G1 X119.215 Y91.458 E-.29828
G1 X117.841 Y92.13 E-.35317
G1 X116.78 Y92.782 E-.28762
;WIPE_END
G1 Z.6 F10800
G1 X143.435 Y112.415
G1 Z.2
G1 E2 F2100
G1 F1200
G1 X143.435 Y93.119 E.58686
G1 X143.016 Y93.119 E.01274
G1 X143.016 Y112.245 E.58169
G1 X142.597 Y112.245 E.01274
G1 X142.597 Y93.119 E.58169
G1 X142.178 Y93.119 E.01274
G1 X142.178 Y112.245 E.58169
G1 X141.759 Y112.245 E.01274
G1 X141.759 Y93.119 E.58169
G1 X141.516 Y93.119 E.00739
G1 X141.516 Y90.802 E.07047
G1 X141.34 Y90.802 E.00535
G1 X141.34 Y119.199 E.86366
G1 X140.921 Y119.199 E.01274
G1 X140.921 Y90.802 E.86366
G1 X140.502 Y90.802 E.01274
M73 P1 R60
G1 X140.502 Y119.199 E.86366
G1 X140.083 Y119.199 E.01274
M73 Q1 S61
G1 X140.083 Y90.802 E.86366
G1 X139.664 Y90.802 E.01274
G1 X139.664 Y101.503 E.32546
G1 X139.245 Y100.069 E.04544
G1 X139.245 Y90.802 E.28184
G1 X138.826 Y90.802 E.01274
G1 X138.826 Y98.998 E.24927
G1 X138.407 Y98.115 E.02973
G1 X138.407 Y90.802 E.22242
G1 X137.988 Y90.802 E.01274
G1 X137.988 Y97.352 E.19921
G1 X137.569 Y96.685 E.02396
G1 X137.569 Y90.802 E.17892
G1 X137.15 Y90.802 E.01274
G1 X137.15 Y96.085 E.16068
G1 X136.731 Y95.54 E.02091
G1 X136.731 Y88.484 E.2146
G1 X136.312 Y88.484 E.01274
G1 X136.312 Y95.045 E.19954
G1 X135.893 Y94.589 E.01883
G1 X135.893 Y88.484 E.18568
G1 X135.475 Y88.484 E.01271
G1 X135.475 Y94.169 E.1729
G1 X135.056 Y93.779 E.01741
G1 X135.056 Y88.484 E.16104
G1 X134.637 Y88.484 E.01274
G1 X134.637 Y93.418 E.15006
G1 X134.218 Y93.082 E.01633
G1 X134.218 Y88.484 E.13984
G1 X133.799 Y88.484 E.01274
G1 X133.799 Y92.77 E.13035
G1 X133.38 Y92.48 E.0155
G1 X133.38 Y88.484 E.12153
G1 X132.961 Y88.484 E.01274
G1 X132.961 Y92.209 E.11329
G1 X132.542 Y91.958 E.01485
G1 X132.542 Y88.484 E.10566
G1 X132.245 Y88.484 E.00903
G1 X132.245 Y86.166 E.0705
G1 X132.123 Y86.166 E.00371
G1 X132.123 Y91.724 E.16904
G1 X131.704 Y91.508 E.01434
G1 X131.704 Y86.166 E.16247
G1 X131.285 Y86.166 E.01274
G1 X131.285 Y91.307 E.15636
G1 X130.866 Y91.123 E.01392
G1 X130.866 Y86.166 E.15076
G1 X130.447 Y86.166 E.01274
G1 X130.447 Y90.954 E.14562
G1 X130.028 Y90.8 E.01358
G1 X130.028 Y86.166 E.14094
G1 X129.609 Y86.166 E.01274
G1 X129.609 Y90.657 E.13659
G1 X129.19 Y90.529 E.01332
G1 X129.19 Y86.166 E.13269
G1 X128.771 Y86.166 E.01274
G1 X128.771 Y90.414 E.1292
G1 X128.352 Y90.313 E.01311
G1 X128.352 Y86.166 E.12613
G1 X127.933 Y86.166 E.01274
G1 X127.933 Y90.225 E.12345
G1 X127.514 Y90.147 E.01296
G1 X127.514 Y86.166 E.12108
G1 X127.095 Y86.166 E.01274
G1 X127.095 Y90.081 E.11907
G1 X126.676 Y90.029 E.01284
G1 X126.676 Y86.166 E.11749
G1 X126.257 Y86.166 E.01274
G1 X126.257 Y89.988 E.11624
G1 X125.838 Y89.96 E.01277
G1 X125.838 Y86.166 E.11539
G1 X125.419 Y86.166 E.01274
G1 X125.419 Y89.941 E.11481
G1 X125 Y89.935 E.01274
G1 X125 Y86.166 E.11463
G1 X124.581 Y86.166 E.01274
G1 X124.581 Y89.942 E.11484
G1 X124.162 Y89.96 E.01276
G1 X124.162 Y86.166 E.11539
G1 X123.743 Y86.166 E.01274
G1 X123.743 Y89.988 E.11624
G1 X123.324 Y90.029 E.0128
G1 X123.324 Y86.166 E.11749
G1 X122.905 Y86.166 E.01274
G1 X122.905 Y90.082 E.1191
G1 X122.486 Y90.147 E.0129
G1 X122.486 Y86.166 E.12108
G1 X122.067 Y86.166 E.01274
G1 X122.067 Y90.225 E.12345
G1 X121.648 Y90.314 E.01303
G1 X121.648 Y86.166 E.12616
G1 X121.229 Y86.166 E.01274
G1 X121.229 Y90.415 E.12923
G1 X120.81 Y90.529 E.01321
G1 X120.81 Y86.166 E.13269
G1 X120.391 Y86.166 E.01274
G1 X120.391 Y90.657 E.13659
G1 X119.972 Y90.799 E.01346
G1 X119.972 Y86.166 E.14091
G1 X119.553 Y86.166 E.01274
G1 X119.553 Y90.954 E.14562
G1 X119.134 Y91.124 E.01375
G1 X119.134 Y86.166 E.15079
G1 X118.715 Y86.166 E.01274
G1 X118.715 Y91.308 E.15639
G1 X118.296 Y91.509 E.01413
G1 X118.296 Y86.166 E.1625
G1 X117.877 Y86.166 E.01274
G1 X117.877 Y91.725 E.16907
G1 X117.458 Y91.958 E.01458
G1 X117.458 Y88.484 E.10566
G1 X117.04 Y88.484 E.01271
G1 X117.04 Y92.209 E.11329
G1 X116.621 Y92.479 E.01516
G1 X116.621 Y88.484 E.1215
G1 X116.202 Y88.484 E.01274
G1 X116.202 Y92.77 E.13035
G1 X115.783 Y93.083 E.01591
G1 X115.783 Y88.484 E.13987
G1 X115.364 Y88.484 E.01274
G1 X115.364 Y93.418 E.15006
G1 X114.945 Y93.78 E.01684
G1 X114.945 Y88.484 E.16107
G1 X114.526 Y88.484 E.01274
G1 X114.526 Y94.17 E.17293
G1 X114.107 Y94.59 E.01804
G1 X114.107 Y88.484 E.18571
G1 X113.688 Y88.484 E.01274
G1 X113.688 Y95.046 E.19957
G1 X113.269 Y95.54 E.0197
G1 X113.269 Y88.484 E.2146
G1 X113.119 Y88.484 E.00456
G1 X113.119 Y90.802 E.0705
G1 X112.85 Y90.802 E.00818
G1 X112.85 Y96.086 E.16071
G1 X112.431 Y96.685 E.02223
G1 X112.431 Y90.802 E.17892
G1 X112.012 Y90.802 E.01274
G1 X112.012 Y97.355 E.1993
G1 X111.593 Y98.114 E.02637
G1 X111.593 Y90.802 E.22238
G1 X111.174 Y90.802 E.01274
G1 X111.174 Y98.996 E.24921
G1 X110.755 Y100.072 E.03512
G1 X110.755 Y90.802 E.28193
G1 X110.336 Y90.802 E.01274
G1 X110.336 Y101.506 E.32555
G1 X110.001 Y103.453 E.06009
G1 X109.928 Y105.539 E.06348
G1 X110.08 Y107.205 E.05088
G1 X110.336 Y108.526 E.04092
G1 X110.336 Y119.199 E.32461
G1 X110.755 Y119.199 E.01274
G1 X110.755 Y109.96 E.28099
G1 X111.174 Y111.032 E.03501
G1 X111.174 Y121.516 E.31886
G1 X111.593 Y121.516 E.01274
G1 X111.593 Y111.917 E.29194
G1 X112.012 Y112.677 E.02639
G1 X112.012 Y121.516 E.26883
G1 X112.431 Y121.516 E.01274
G1 X112.431 Y113.344 E.24854
G1 X112.85 Y113.945 E.02228
G1 X112.85 Y121.516 E.23026
G1 X113.269 Y121.516 E.01274
G1 X113.269 Y114.49 E.21369
G1 X113.688 Y114.986 E.01975
G1 X113.688 Y121.516 E.1986
G1 X114.107 Y121.516 E.01274
G1 X114.107 Y115.442 E.18473
G1 X114.526 Y115.862 E.01804
G1 X114.526 Y121.516 E.17196
G1 X114.945 Y121.516 E.01274
G1 X114.945 Y116.252 E.1601
G1 X115.364 Y116.613 E.01682
G1 X115.437 Y123.834 E.21963
G1 X115.783 Y123.834 E.01052
G1 X115.783 Y116.949 E.2094
G1 X116.202 Y117.261 E.01589
G1 X116.202 Y123.834 E.19991
G1 X116.621 Y123.834 E.01274
G1 X116.621 Y117.551 E.19109
G1 X117.04 Y117.822 E.01518
G1 X117.04 Y123.834 E.18285
G1 X117.458 Y123.834 E.01271
G1 X117.458 Y118.073 E.17521
G1 X117.877 Y118.306 E.01458
G1 X117.877 Y123.834 E.16813
G1 X118.296 Y123.834 E.01274
G1 X118.296 Y118.523 E.16153
G1 X118.715 Y118.723 E.01412
G1 X118.715 Y123.834 E.15544
G1 X119.134 Y123.834 E.01274
G1 X119.134 Y118.908 E.14982
G1 X119.553 Y119.076 E.01373
G1 X119.553 Y123.834 E.14471
G1 X119.972 Y123.834 E.01274
G1 X119.972 Y119.268 E.13887
G1 X120.391 Y119.437 E.01374
G1 X120.391 Y123.834 E.13373
G1 X120.81 Y123.834 E.01274
M73 P1 R59
G1 X120.81 Y119.501 E.13178
G1 X121.229 Y119.616 E.01321
G1 X121.229 Y123.834 E.12828
G1 X121.648 Y123.834 E.01274
G1 X121.648 Y119.717 E.12521
G1 X122.067 Y119.806 E.01303
G1 X122.067 Y123.834 E.12251
G1 X122.486 Y123.834 E.01274
M73 Q1 S60
G1 X122.486 Y119.883 E.12016
G1 X122.905 Y119.949 E.0129
G1 X122.905 Y123.834 E.11816
G1 X123.324 Y123.834 E.01274
G1 X123.324 Y120.001 E.11658
G1 X123.743 Y120.042 E.0128
G1 X123.743 Y123.834 E.11533
G1 X124.162 Y123.834 E.01274
G1 X124.162 Y120.07 E.11448
G1 X124.581 Y120.089 E.01276
G1 X124.581 Y123.834 E.1139
G1 X125 Y123.834 E.01274
G1 X125 Y120.096 E.11369
G1 X125.419 Y120.089 E.01275
M73 P2 R59
G1 X125.419 Y123.834 E.1139
G1 X125.838 Y123.834 E.01274
G1 X125.838 Y120.071 E.11445
G1 X126.257 Y120.042 E.01277
G1 X126.257 Y123.834 E.11533
G1 X126.676 Y123.834 E.01274
G1 X126.676 Y120.001 E.11658
M73 Q2 S60
G1 X127.095 Y119.948 E.01284
G1 X127.095 Y123.834 E.11819
G1 X127.514 Y123.834 E.01274
G1 X127.514 Y119.883 E.12016
G1 X127.933 Y119.805 E.01296
G1 X127.933 Y123.834 E.12254
G1 X128.352 Y123.834 E.01274
G1 X128.352 Y119.716 E.12524
G1 X128.771 Y119.615 E.01311
G1 X128.771 Y123.834 E.12832
G1 X129.19 Y123.834 E.01274
G1 X129.19 Y119.501 E.13178
G1 X129.609 Y119.428 E.01294
G1 X129.609 Y123.834 E.134
G1 X130.028 Y123.834 E.01274
G1 X130.028 Y119.271 E.13878
G1 X130.447 Y119.076 E.01406
G1 X130.447 Y123.834 E.14471
G1 X130.866 Y123.834 E.01274
G1 X130.866 Y118.906 E.14988
G1 X131.285 Y118.722 E.01392
G1 X131.285 Y123.834 E.15547
G1 X131.704 Y123.834 E.01274
G1 X131.704 Y118.522 E.16156
G1 X132.123 Y118.306 E.01434
G1 X132.123 Y123.834 E.16813
G1 X132.542 Y123.834 E.01274
G1 X132.542 Y118.072 E.17524
G1 X132.961 Y117.822 E.01484
G1 X132.961 Y123.834 E.18285
G1 X133.38 Y123.834 E.01274
G1 X133.38 Y117.551 E.19109
G1 X133.799 Y117.261 E.0155
G1 X133.799 Y123.834 E.19991
G1 X134.218 Y123.834 E.01274
G1 X134.218 Y116.948 E.20943
G1 X134.637 Y116.612 E.01633
G1 X134.637 Y121.516 E.14915
G1 X135.056 Y121.516 E.01274
G1 X135.056 Y116.251 E.16013
G1 X135.475 Y115.861 E.01741
G1 X135.475 Y121.516 E.17199
G1 X135.893 Y121.516 E.01271
G1 X135.893 Y115.44 E.18479
G1 X136.312 Y114.985 E.01881
G1 X136.312 Y121.516 E.19863
G1 X136.731 Y121.516 E.01274
G1 X136.731 Y114.491 E.21366
G1 X137.15 Y113.944 E.02096
G1 X137.15 Y121.516 E.23029
G1 X137.569 Y121.516 E.01274
G1 X137.569 Y113.344 E.24854
G1 X137.988 Y112.675 E.02401
G1 X137.988 Y121.516 E.26889
G1 X138.407 Y121.516 E.01274
G1 X138.407 Y111.916 E.29197
G1 X138.826 Y111.032 E.02975
G1 X138.826 Y121.516 E.31886
G1 X139.199 Y121.516 E.01134
G1 X139.245 Y109.96 E.35146
G1 X139.664 Y108.527 E.04541
G1 X139.664 Y119.368 E.32971
;WIPE_START
G1 F8640
G1 X139.664 Y110.706 E-2
;WIPE_END
G1 Z.6 F10800
G1 X109.917 Y119.368
G1 Z.2
G1 E2 F2100
G1 F1200
G1 X109.917 Y90.802 E.8688
G1 X109.498 Y90.802 E.01274
G1 X109.498 Y119.199 E.86366
G1 X109.079 Y119.199 E.01274
G1 X109.079 Y90.802 E.86366
G1 X108.66 Y90.802 E.01274
G1 X108.66 Y119.199 E.86366
G1 X108.484 Y119.199 E.00535
G1 X108.484 Y112.245 E.2115
G1 X108.241 Y112.245 E.00739
G1 X108.241 Y93.119 E.58169
G1 X107.822 Y93.119 E.01274
G1 X107.822 Y112.245 E.58169
G1 X107.403 Y112.245 E.01274
G1 X107.403 Y93.119 E.58169
G1 X106.984 Y93.119 E.01274
G1 X106.984 Y112.245 E.58169
G1 X106.565 Y112.245 E.01274
G1 X106.565 Y92.95 E.58683
;WIPE_START
G1 F8640
G1 X106.565 Y101.612 E-2
;WIPE_END
G1 Z.6 F10800
G1 X125.094 Y92.589
G1 Z.2
G1 E2 F2100
G1 F1200
G1 X126.489 Y92.677 E.04251
G1 X127.661 Y92.876 E.03615
G1 X128.911 Y93.22 E.03943
G1 X130.015 Y93.645 E.03598
G1 X131.247 Y94.272 E.04204
G1 X132.313 Y94.968 E.03872
G1 X133.285 Y95.753 E.038
G1 X134.187 Y96.647 E.03862
G1 X134.941 Y97.558 E.03597
G1 X135.618 Y98.558 E.03673
G1 X136.181 Y99.591 E.03578
G1 X136.744 Y100.952 E.04479
G1 X137.155 Y102.427 E.04657
G1 X137.387 Y104.012 E.04872
G1 X137.055 Y104.183 E.01136
G1 X136.803 Y104.459 E.01137
G1 X136.655 Y104.85 E.01272
G1 X136.647 Y105.129 E.00849
G1 X136.892 Y105.7 E.0189
G1 X137.386 Y106.024 E.01797
G1 X137.02 Y108.171 E.06624
G1 X136.642 Y109.363 E.03803
G1 X136.204 Y110.389 E.03393
G1 X135.62 Y111.467 E.03729
G1 X135.049 Y112.326 E.03137
G1 X134.323 Y113.232 E.03531
G1 X133.502 Y114.076 E.03581
G1 X132.647 Y114.807 E.03421
G1 X131.549 Y115.574 E.04073
G1 X130.553 Y116.131 E.03471
G1 X129.468 Y116.611 E.03608
G1 X128.336 Y116.986 E.03627
G1 X127.206 Y117.245 E.03526
G1 X124.997 Y117.442 E.06745
G1 X123.715 Y117.375 E.03904
G1 X122.339 Y117.154 E.04239
G1 X121.101 Y116.815 E.03904
G1 X119.985 Y116.386 E.03636
G1 X118.928 Y115.858 E.03593
G1 X117.854 Y115.181 E.03861
G1 X116.868 Y114.412 E.03803
