; generated by PrusaSlicer 2.7.4 on 2024-05-03 at 11:28:02 UTC

; 

; external perimeters extrusion width = 0.45mm
; perimeters extrusion width = 0.45mm
; infill extrusion width = 0.45mm
; solid infill extrusion width = 0.45mm
; top infill extrusion width = 0.40mm
; support material extrusion width = 0.35mm
; first layer extrusion width = 0.42mm

M73 P0 R4
M73 Q0 S4

; printing object text.stl id:0 copy 0
; stop printing object text.stl id:0 copy 0

;TYPE:Custom
M862.3 P "MK3S" ; printer model check
M862.1 P0.4 ; nozzle diameter check
M115 U3.9.3 ; tell printer latest fw version
G90 ; use absolute coordinates
M83 ; extruder relative mode
M104 S215 ; set extruder temp
M140 S60 ; set bed temp
M190 S60 ; wait for bed temp
M109 S215 ; wait for extruder temp
G28 W ; home all without mesh bed level
G80 ; mesh bed leveling
G1 Y-3.0 F1000.0 ; go outside print area
G92 E0.0
G1 X60.0 E9.0 F1000.0 ; intro line
G1 X100.0 E12.5 F1000.0 ; intro line
M73 P1 R4
M73 Q1 S4
G92 E0.0
M221 S95

; Don't change E values below. Excessive value can damage the printer.

G21 ; set units to millimeters
G90 ; use absolute coordinates
M83 ; use relative distances for extrusion
M900 K0.05 ; Filament gcode LA 1.5
M900 K30 ; Filament gcode LA 1.0
M107
;LAYER_CHANGE
;Z:0.2
;HEIGHT:0.2
G1 E-2 F2100
M73 P2 R4
M73 Q2 S4
G1 Z.6 F10800
G1 X115.46 Y97.293
G1 Z.2
G1 E2 F2100
M204 S1000
;TYPE:Skirt/Brim
;WIDTH:0.42
G1 F1200
G1 X116.64 Y96.416 E.04471
G1 X117.635 Y96.23 E.03079
G1 X132.365 Y96.23 E.44799
G1 X133.783 Y96.623 E.04475
G1 X134.54 Y97.294 E.03077
G1 X134.881 Y97.738 E.01703
G1 X135.502 Y98.67 E.03406
G1 X136.216 Y100.05 E.04726
G1 X136.62 Y101.095 E.03407
M73 Q3 S4
G1 X136.927 Y102.172 E.03406
G1 X137.134 Y103.273 E.03407
G1 X137.239 Y104.388 E.03406
M73 P3 R4
G1 X137.242 Y105.508 E.03406
G1 X137.143 Y106.623 E.03404
G1 X136.943 Y107.725 E.03406
G1 X136.643 Y108.804 E.03406
G1 X136.245 Y109.852 E.03409
G1 X135.754 Y110.858 E.03405
G1 X135.173 Y111.815 E.03405
G1 X134.51 Y112.711 E.0339
G1 X133.326 Y113.584 E.04474
G1 X132.344 Y113.766 E.03037
G1 X117.662 Y113.77 E.44653
G1 X116.244 Y113.378 E.04474
G1 X115.494 Y112.716 E.03042
G1 X114.304 Y110.962 E.06446
G1 X113.534 Y109.306 E.05554
G1 X113.19 Y108.253 E.03369
G1 X112.941 Y107.157 E.03418
G1 X112.747 Y105.047 E.06444
G1 X112.791 Y103.937 E.03379
G1 X112.935 Y102.842 E.03359
G1 X113.384 Y101.081 E.05527
G1 X113.788 Y100.04 E.03396
G1 X114.284 Y99.04 E.03395
G1 X115.427 Y97.343 E.06223
G1 X115.427 Y97.343 F10800
G1 X115.74 Y97.552
G1 F1200
G1 X115.758 Y97.525 E.00099
G1 X116.869 Y96.733 E.0415
G1 X117.635 Y96.607 E.02361
G1 X132.365 Y96.607 E.44799
G1 X133.673 Y96.998 E.04152
M73 P4 R4
M73 Q4 S4
G1 X134.242 Y97.525 E.02359
G1 X134.824 Y98.31 E.02972
G1 X135.392 Y99.235 E.03301
G1 X135.917 Y100.308 E.03633
G1 X136.586 Y102.371 E.06596
G1 X136.868 Y104.521 E.06595
G1 X136.754 Y106.687 E.06597
G1 X136.282 Y108.693 E.06268
G1 X135.42 Y110.683 E.06596
G1 X134.213 Y112.479 E.06581
G1 X133.098 Y113.265 E.04149
G1 X132.343 Y113.389 E.02327
G1 X117.662 Y113.393 E.4465
G1 X116.354 Y113.002 E.04152
G1 X115.79 Y112.483 E.02331
G1 X114.63 Y110.772 E.06287
G1 X113.889 Y109.179 E.05343
G1 X113.313 Y107.097 E.0657
G1 X113.124 Y105.038 E.06289
G1 X113.308 Y102.901 E.06523
G1 X113.74 Y101.208 E.05314
G1 X114.559 Y99.324 E.06248
M73 P5 R4
M73 Q5 S4
G1 X115.707 Y97.602 E.06294
;WIPE_START
G1 F8640
G1 X115.74 Y97.552 E-.01383
G1 X115.758 Y97.525 E-.00749
G1 X116.869 Y96.733 E-.31504
G1 X117.635 Y96.607 E-.17925
G1 X124.064 Y96.607 E-1.48439
;WIPE_END
G1 Z.6 F10800
; printing object text.stl id:0 copy 0
G1 X117.908 Y99.48
G1 Z.2
G1 E2 F2100
;TYPE:External perimeter
;WIDTH:0.510159
G1 F1200
G1 X118.05 Y99.585 E.00666
G1 X118.114 Y99.783 E.00784
G1 X118.063 Y99.97 E.0073
;WIDTH:0.5181
G1 X117.601 Y100.682 E.03253
G1 X117.221 Y101.416 E.03168
;WIDTH:0.531867
G1 X116.766 Y102.66 E.05224
;WIDTH:0.529413
G1 X116.592 Y103.442 E.03143
G1 X116.482 Y104.207 E.03033
;WIDTH:0.525804
G1 X116.446 Y104.984 E.03029
G1 X116.482 Y105.767 E.03053
;WIDTH:0.529492
G1 X116.593 Y106.531 E.0303
G1 X116.78 Y107.357 E.03324
;WIDTH:0.517078
G1 X117.039 Y108.126 E.03103
G1 X117.368 Y108.857 E.03066
G1 X117.761 Y109.549 E.03043
;WIDTH:0.545548
G1 X118.129 Y110.065 E.02569
G1 X118.236 Y110.077 E.00436
;WIDTH:0.521461
G1 X131.764 Y110.077 E.52214
;WIDTH:0.545461
G1 X131.871 Y110.065 E.00436
G1 X132.074 Y109.798 E.0136
;WIDTH:0.524179
G1 X132.483 Y109.14 E.03007
;WIDTH:0.522085
G1 X133.004 Y108.005 E.04827
;WIDTH:0.518984
G1 X133.268 Y107.197 E.03264
;WIDTH:0.532462
G1 X133.398 Y106.555 E.02586
G1 X133.517 Y105.796 E.03033
;WIDTH:0.524362
G1 X133.554 Y105.118 E.02637
;WIDTH:0.525734
G1 X133.545 Y104.603 E.02006
;WIDTH:0.526163
G1 X133.475 Y103.832 E.03017
G1 X133.335 Y103.065 E.03039
;WIDTH:0.529836
G1 X133.122 Y102.321 E.03039
G1 X132.787 Y101.431 E.03735
;WIDTH:0.518243
G1 X132.399 Y100.682 E.03234
;WIDTH:0.51753
G1 X131.923 Y99.943 E.03365
;WIDTH:0.51551
G1 X131.901 Y99.73 E.00816
G1 X131.966 Y99.58 E.00623
G1 X132.118 Y99.466 E.00724
G1 X132.162 Y99.475 E.00171
;WIDTH:0.524524
G1 X132.504 Y99.949 E.0227
;WIDTH:0.524846
G1 X132.933 Y100.655 E.03211
;WIDTH:0.525483
G1 X133.294 Y101.398 E.03215
G1 X133.674 Y102.466 E.04412
;WIDTH:0.526143
G1 X133.808 Y102.966 E.02018
G1 X133.955 Y103.779 E.0322
M73 Q6 S4
G1 X134.028 Y104.601 E.03216
M73 P6 R4
;WIDTH:0.525734
G1 X134.021 Y105.162 E.02185
;WIDTH:0.518
G1 X133.968 Y106.067 E.03474
;WIDTH:0.532462
G1 X133.877 Y106.657 E.02357
G1 X133.691 Y107.462 E.03262
;WIDTH:0.523048
G1 X133.447 Y108.156 E.02849
;WIDTH:0.531324
G1 X133.265 Y108.63 E.02
G1 X132.869 Y109.427 E.03506
;WIDTH:0.524179
G1 X132.47 Y110.07 E.02937
;WIDTH:0.545461
G1 X132.105 Y110.543 E.02422
G1 X131.764 Y110.555 E.01383
;WIDTH:0.521461
G1 X118.236 Y110.555 E.52214
;WIDTH:0.545548
G1 X117.895 Y110.543 E.01383
G1 X117.652 Y110.24 E.01575
;WIDTH:0.516937
G1 X117.344 Y109.775 E.02132
G1 X116.929 Y109.039 E.0323
;WIDTH:0.516822
G1 X116.586 Y108.266 E.03232
G1 X116.316 Y107.438 E.03329
;WIDTH:0.529492
G1 X116.114 Y106.616 E.03322
G1 X116.001 Y105.801 E.03229
;WIDTH:0.525871
G1 X115.964 Y104.973 E.03229
G1 X116.002 Y104.15 E.03209
;WIDTH:0.529413
G1 X116.117 Y103.335 E.0323
G1 X116.35 Y102.378 E.03865
;WIDTH:0.531867
G1 X116.564 Y101.753 E.02605
G1 X116.89 Y100.997 E.03247
;WIDTH:0.52463
G1 X117.287 Y100.275 E.03201
;WIDTH:0.523635
G1 X117.845 Y99.467 E.03807
;WIDTH:0.510159
G1 X117.85 Y99.468 E.00019
M106 S255
;LAYER_CHANGE
;Z:0.35
;HEIGHT:0.15
;BEFORE_LAYER_CHANGE
G92 E0.0
;0.35


;WIPE_START
G1 F8640
G1 X117.908 Y99.48 E-.01368
G1 X118.05 Y99.585 E-.04078
G1 X118.114 Y99.783 E-.04805
G1 X118.063 Y99.97 E-.04476
G1 X117.601 Y100.682 E-.19598
G1 X117.221 Y101.416 E-.19085
G1 X116.766 Y102.66 E-.30585
G1 X116.592 Y103.442 E-.18498
G1 X116.482 Y104.207 E-.17846
G1 X116.446 Y104.984 E-.1796
G1 X116.482 Y105.767 E-.18099
G1 X116.593 Y106.531 E-.17826
G1 X116.78 Y107.357 E-.19555
G1 X116.866 Y107.612 E-.06221
;WIPE_END
G1 Z.35 F10800
;AFTER_LAYER_CHANGE
;0.35
; stop printing object text.stl id:0 copy 0
G1 Z.75
G1 X113.355 Y108.758
G1 Z.35
G1 E2 F2100
;TYPE:Skirt/Brim
;WIDTH:0.42
G1 F3000
G1 X113.19 Y108.253 E.01246
G1 X112.941 Y107.157 E.02637
G1 X112.747 Y105.047 E.04971
G1 X112.791 Y103.937 E.02606
G1 X112.935 Y102.842 E.02591
G1 X113.384 Y101.081 E.04263
G1 X113.788 Y100.04 E.0262
G1 X114.284 Y99.04 E.02619
G1 X115.46 Y97.293 E.0494
G1 X116.64 Y96.416 E.03449
G1 X117.635 Y96.23 E.02375
G1 X132.365 Y96.23 E.34556
G1 X133.783 Y96.623 E.03452
M73 P7 R4
M73 Q7 S4
G1 X134.54 Y97.294 E.02373
G1 X134.881 Y97.738 E.01313
G1 X135.502 Y98.67 E.02627
G1 X136.216 Y100.05 E.03645
G1 X136.62 Y101.095 E.02628
G1 X136.927 Y102.172 E.02627
G1 X137.134 Y103.273 E.02628
G1 X137.239 Y104.388 E.02627
G1 X137.242 Y105.508 E.02627
G1 X137.143 Y106.623 E.02626
G1 X136.943 Y107.725 E.02627
G1 X136.643 Y108.804 E.02627
G1 X136.245 Y109.852 E.0263
G1 X135.754 Y110.858 E.02626
G1 X135.173 Y111.815 E.02626
G1 X134.51 Y112.711 E.02615
G1 X133.326 Y113.584 E.03451
G1 X132.344 Y113.766 E.02343
G1 X117.662 Y113.77 E.34443
G1 X116.244 Y113.378 E.03451
G1 X115.494 Y112.716 E.02347
G1 X114.304 Y110.962 E.04972
G1 X113.534 Y109.306 E.04284
G1 X113.374 Y108.815 E.01211
G1 X113.374 Y108.815 F10800
G1 X113.759 Y108.708
G1 F3000
G1 X113.313 Y107.097 E.03921
G1 X113.124 Y105.038 E.04851
G1 X113.308 Y102.901 E.05032
G1 X113.74 Y101.208 E.04099
G1 X114.559 Y99.324 E.04819
G1 X115.758 Y97.525 E.05072
G1 X116.869 Y96.733 E.03201
G1 X117.635 Y96.607 E.01821
G1 X132.365 Y96.607 E.34556
G1 X133.673 Y96.998 E.03203
G1 X134.242 Y97.525 E.01819
G1 X134.824 Y98.31 E.02292
G1 X135.392 Y99.235 E.02546
G1 X135.917 Y100.308 E.02802
G1 X136.586 Y102.371 E.05088
G1 X136.868 Y104.521 E.05087
G1 X136.754 Y106.687 E.05088
G1 X136.282 Y108.693 E.04834
G1 X135.42 Y110.683 E.05088
G1 X134.213 Y112.479 E.05076
G1 X133.098 Y113.265 E.032
G1 X132.343 Y113.389 E.01795
G1 X117.662 Y113.393 E.34441
G1 X116.354 Y113.002 E.03203
G1 X115.79 Y112.483 E.01798
G1 X114.63 Y110.772 E.04849
G1 X113.889 Y109.179 E.04122
G1 X113.775 Y108.766 E.01005
;WIPE_START
G1 F8640
G1 X113.759 Y108.708 E-.01389
G1 X113.313 Y107.097 E-.38598
G1 X113.124 Y105.038 E-.47743
G1 X113.308 Y102.901 E-.49526
G1 X113.74 Y101.208 E-.40344
G1 X114.127 Y100.318 E-.224
;WIPE_END
G1 Z.75 F10800
M73 Q8 S4
; printing object text.stl id:0 copy 0
G1 X118.179 Y109.757
G1 Z.35
M73 P8 R4
G1 E2 F2100
M204 S800
;TYPE:External perimeter
;WIDTH:0.449999
G1 F1500
G1 X118.347 Y109.841 E.00475
G1 X131.654 Y109.841 E.33632
G1 X131.804 Y109.778 E.00411
G1 X132.088 Y109.333 E.01334
G1 X132.439 Y108.676 E.01883
G1 X132.788 Y107.924 E.02095
G1 X133.041 Y107.138 E.02087
G1 X133.162 Y106.51 E.01616
G1 X133.28 Y105.782 E.01864
G1 X133.324 Y105.115 E.01689
G1 X133.307 Y104.609 E.0128
G1 X133.239 Y103.863 E.01893
G1 X133.103 Y103.119 E.01912
G1 X132.898 Y102.403 E.01882
G1 X132.574 Y101.529 E.02356
G1 X132.197 Y100.801 E.02072
G1 X131.747 Y100.099 E.02107
G1 X131.66 Y99.881 E.00593
G1 X131.682 Y99.608 E.00692
G1 X131.821 Y99.381 E.00673
G1 X131.998 Y99.273 E.00524
G1 X132.26 Y99.22 E.00676
G1 X132.707 Y99.826 E.01903
G1 X133.146 Y100.551 E.02142
G1 X133.517 Y101.314 E.02144
G1 X133.895 Y102.389 E.0288
G1 X134.042 Y102.924 E.01402
G1 X134.192 Y103.758 E.02142
G1 X134.265 Y104.605 E.02149
G1 X134.234 Y105.853 E.03155
G1 X134.116 Y106.691 E.02139
G1 X133.923 Y107.516 E.02141
G1 X133.654 Y108.32 E.02143
G1 X133.313 Y109.096 E.02142
G1 X132.903 Y109.838 E.02143
G1 X132.229 Y110.791 E.0295
G1 X117.774 Y110.791 E.36534
G1 X117.326 Y110.192 E.01891
G1 X116.881 Y109.467 E.0215
G1 X116.505 Y108.707 E.02143
G1 X116.074 Y107.502 E.03234
G1 X115.881 Y106.676 E.02144
G1 X115.764 Y105.834 E.02149
G1 X115.725 Y104.984 E.02151
G1 X115.764 Y104.14 E.02135
G1 X115.879 Y103.303 E.02135
G1 X116.07 Y102.479 E.02138
G1 X116.335 Y101.677 E.02135
M73 Q9 S4
G1 X116.672 Y100.902 E.02136
M73 P9 R4
G1 X117.077 Y100.163 E.0213
G1 X117.743 Y99.22 E.02918
G1 X117.893 Y99.236 E.00381
G1 X118.187 Y99.386 E.00834
G1 X118.307 Y99.585 E.00587
G1 X118.342 Y99.872 E.00731
G1 X118.253 Y100.098 E.00614
G1 X117.804 Y100.799 E.02104
G1 X117.434 Y101.512 E.0203
G1 X117.014 Y102.634 E.03028
G1 X116.825 Y103.494 E.02225
G1 X116.719 Y104.229 E.01877
G1 X116.684 Y104.984 E.0191
G1 X116.726 Y105.733 E.01896
G1 X116.823 Y106.544 E.02064
G1 X117.005 Y107.305 E.01978
G1 X117.39 Y108.357 E.02831
G1 X117.733 Y109.004 E.01851
G1 X118.149 Y109.706 E.02062
M204 S1000
;WIPE_START
G1 F8640
G1 X118.179 Y109.757 E-.01366
G1 X118.347 Y109.841 E-.04337
G1 X126.761 Y109.841 E-1.94297
;WIPE_END
G1 Z.75 F10800
G1 X132.141 Y99.846
G1 Z.35
G1 E2 F2100
M204 S800
;TYPE:Perimeter
;WIDTH:0.556442
G1 F2700
G1 X132.594 Y100.546 E.02644
;WIDTH:0.557822
G1 X132.993 Y101.313 E.02749
;WIDTH:0.580472
G1 X133.351 Y102.237 E.03287
G1 X133.57 Y103.01 E.02665
;WIDTH:0.573448
G1 X133.715 Y103.801 E.02633
G1 X133.768 Y104.301 E.01646
;WIDTH:0.555778
G1 X133.788 Y105.1 E.02531
;WIDTH:0.56967
G1 X133.757 Y105.814 E.02324
;WIDTH:0.58573
G1 X133.639 Y106.601 E.02665
G1 X133.505 Y107.227 E.02144
;WIDTH:0.560966
G1 X133.239 Y108.07 E.02828
;WIDTH:0.58347
G1 X132.879 Y108.881 E.02959
G1 X132.494 Y109.587 E.02682
;WIDTH:0.573168
G1 X132.216 Y110.013 E.01665
;WIDTH:0.598364
G1 X132.097 Y110.145 E.00609
;WIDTH:0.641746
G1 X131.979 Y110.277 E.00653
G1 X131.816 Y110.297 E.00606
;WIDTH:0.603065
G1 X131.654 Y110.316 E.00563
;WIDTH:0.564384
G1 X118.347 Y110.316 E.4284
;WIDTH:0.601058
G1 X118.188 Y110.298 E.00551
;WIDTH:0.637732
G1 X118.03 Y110.279 E.00583
G1 X117.875 Y110.102 E.00862
;WIDTH:0.601542
G1 X117.719 Y109.925 E.00813
;WIDTH:0.583434
G1 X117.305 Y109.233 E.02689
G1 X116.987 Y108.613 E.02324
;WIDTH:0.565496
G1 X116.561 Y107.464 E.03953
;WIDTH:0.56154
G1 X116.362 Y106.654 E.02671
;WIDTH:0.580826
G1 X116.246 Y105.789 E.02896
G1 X116.205 Y104.984 E.02675
;WIDTH:0.572874
G1 X116.241 Y104.183 E.02622
G1 X116.304 Y103.673 E.01681
;WIDTH:0.570176
G1 X116.53 Y102.609 E.0354
;WIDTH:0.58457
G1 X116.789 Y101.85 E.0268
G1 X116.993 Y101.346 E.01817
;WIDTH:0.557542
G1 X117.386 Y100.581 E.02733
G1 X117.865 Y99.848 E.02783
M204 S1000
;LAYER_CHANGE
;Z:0.5
;HEIGHT:0.15
;BEFORE_LAYER_CHANGE
G92 E0.0
;0.5


;WIPE_START
G1 F8640
G1 X117.386 Y100.581 E-.20219
G1 X116.993 Y101.346 E-.19859
G1 X116.789 Y101.85 E-.12555
G1 X116.53 Y102.609 E-.18518
G1 X116.304 Y103.673 E-.25116
G1 X116.241 Y104.183 E-.11866
G1 X116.205 Y104.984 E-.18514
G1 X116.246 Y105.789 E-.18612
G1 X116.362 Y106.654 E-.20152
G1 X116.561 Y107.464 E-.19259
G1 X116.792 Y108.086 E-.1533
;WIPE_END
G1 Z.5 F10800
;AFTER_LAYER_CHANGE
;0.5
; stop printing object text.stl id:0 copy 0
G1 Z.9
G1 X113.646 Y109.547
G1 Z.5
G1 E2 F2100
;TYPE:Skirt/Brim
;WIDTH:0.42
G1 F3000
G1 X113.534 Y109.306 E.00623
G1 X113.19 Y108.253 E.02599
G1 X112.941 Y107.157 E.02637
G1 X112.747 Y105.047 E.04971
G1 X112.791 Y103.937 E.02606
G1 X112.935 Y102.842 E.02591
M73 Q10 S4
G1 X113.384 Y101.081 E.04263
G1 X113.788 Y100.04 E.0262
M73 P10 R4
G1 X114.284 Y99.04 E.02619
G1 X115.46 Y97.293 E.0494
G1 X116.64 Y96.416 E.03449
G1 X117.635 Y96.23 E.02375
G1 X132.365 Y96.23 E.34556
G1 X133.783 Y96.623 E.03452
G1 X134.54 Y97.294 E.02373
G1 X134.881 Y97.738 E.01313
G1 X135.502 Y98.67 E.02627
G1 X136.216 Y100.05 E.03645
G1 X136.62 Y101.095 E.02628
G1 X136.927 Y102.172 E.02627
G1 X137.134 Y103.273 E.02628
G1 X137.239 Y104.388 E.02627
G1 X137.242 Y105.508 E.02627
G1 X137.143 Y106.623 E.02626
G1 X136.943 Y107.725 E.02627
G1 X136.643 Y108.804 E.02627
G1 X136.245 Y109.852 E.0263
G1 X135.754 Y110.858 E.02626
G1 X135.173 Y111.815 E.02626
G1 X134.51 Y112.711 E.02615
G1 X133.326 Y113.584 E.03451
G1 X132.344 Y113.766 E.02343
G1 X117.662 Y113.77 E.34443
G1 X116.244 Y113.378 E.03451
G1 X115.494 Y112.716 E.02347
G1 X114.304 Y110.962 E.04972
G1 X113.672 Y109.602 E.03518
G1 X113.672 Y109.602 F10800
G1 X114.012 Y109.444
G1 F3000
G1 X113.889 Y109.179 E.00685
G1 X113.313 Y107.097 E.05068
G1 X113.124 Y105.038 E.04851
G1 X113.308 Y102.901 E.05032
G1 X113.74 Y101.208 E.04099
G1 X114.559 Y99.324 E.04819
G1 X115.758 Y97.525 E.05072
G1 X116.869 Y96.733 E.03201
G1 X117.635 Y96.607 E.01821
G1 X132.365 Y96.607 E.34556
G1 X133.673 Y96.998 E.03203
G1 X134.242 Y97.525 E.01819
G1 X134.824 Y98.31 E.02292
G1 X135.392 Y99.235 E.02546
G1 X135.917 Y100.308 E.02802
G1 X136.586 Y102.371 E.05088
G1 X136.868 Y104.521 E.05087
G1 X136.754 Y106.687 E.05088
G1 X136.282 Y108.693 E.04834
G1 X135.42 Y110.683 E.05088
G1 X134.213 Y112.479 E.05076
G1 X133.098 Y113.265 E.032
G1 X132.343 Y113.389 E.01795
G1 X117.662 Y113.393 E.34441
G1 X116.354 Y113.002 E.03203
G1 X115.79 Y112.483 E.01798
M73 P11 R4
M73 Q11 S4
G1 X114.63 Y110.772 E.04849
G1 X114.038 Y109.498 E.03296
;WIPE_START
G1 F8640
G1 X114.012 Y109.444 E-.01384
G1 X113.889 Y109.179 E-.06746
G1 X113.313 Y107.097 E-.4988
G1 X113.124 Y105.038 E-.47743
G1 X113.308 Y102.901 E-.49526
G1 X113.74 Y101.208 E-.40344
G1 X113.816 Y101.034 E-.04377
;WIPE_END
G1 Z.9 F10800
; printing object text.stl id:0 copy 0
G1 X118.179 Y109.757
G1 Z.5
G1 E2 F2100
M204 S800
;TYPE:External perimeter
;WIDTH:0.449999
G1 F1500
G1 X118.347 Y109.841 E.00475
